!!!!SEGMENT: pl-sa--576-a-ix-56--005_anonim--polonais.krn
!!!cenid: 18xx:634
!!!COM: Anonim
!!!COM-rismid: pe30004985
!!!CDT:
!!!CNT:
!!!OTL: Polonais
!!!PDT:
!!!AGN: Secular; Polonaise
!!!SMS-siglum: PL-SA
!!!SMS-shelfmark: 576/A IX 56
!!!SMS-shelfwork: 005 W
!!!SMS-variant:
!!!SMS-altvar:
!!!NIFC-rismid: 1001109917
!!!system-decoration: {(s1,s2)}
!!!AIN: 1 empty 1 piano
!!!key:
**kern	**kern
*part2	*part1
*staff2	*staff1
*Iempty	*Ipiano
*	*I"Piano
*clefF4	*clefG2
*k[]	*k[f#c#]
*D:	*D:
*M3/4	*M3/4
=1	=1
!	!LO:TX:a:t=P:problem=w źródle caudy nut po lewej i po prawej
!	!LO:TX:a:Bi:t=Polonais:rj
!LO:TX:a:t=P:problem=zgodnie z RISM "Right hand part only."	!
2.ryy	8ff# 8a 8d\
.	8r
.	8ee 8a\
.	8r
.	8dd 8f#\
.	8r
=2	=2
2.ryy	16bbLL 16a#X\
.	16bbJJ 16b\
.	4r
.	(>16b\LL
.	16a#\JJ)
!	!LO:TX:a:t=P:problem=w źródle caudy nut po lewej
.	16g/LL
.	16f#/
.	16e/
.	16d/JJ
=3	=3
2.ryy	16d/LL
.	16d/
.	16a/
.	16a/JJ
.	16d#X/LL
.	16d#/
.	16a/
.	16a/JJ
.	16A/LL
.	16A/
.	16a/
.	16a/JJ
=4	=4
2.ryy	8a\L
.	8gg\
.	8ee\
.	8gg\J
.	4aa\
!LO:TX:a:t=[segno]:problem:problem=znak segno na kresce taktowej	!LO:TX:a:t=[segno]:problem:problem=znak segno na kresce taktowej
=5||	=5||
!	!LO:N:vis=16
2.ryy	(>16.aa\LL
.	32gg\JJk)
!	!LO:N:vis=16
.	16.aa\LL
.	32gg\JJk
.	16.aa\LL
.	32gg\JJk
.	16.aa\LL
.	32gg\JJk
.	16.aa\LL
.	32gg\JJk
.	16.aa\LL
.	32gg\JJk
!!LO:LB:g=original
=6	=6
2.ryy	(>8bb\L
.	8aa\J)
.	4.aa\
.	(>16gg\LL
.	16ff#\JJ)
=7	=7
2.ryy	16.ff#\LL
.	32ee\JJk
.	16.ff#\LL
.	32ee\JJk
.	16.ff#\LL
.	32ee\JJk
.	16.ff#\LL
.	32ee\JJk
.	(>16ff#\LL
.	16ee\JJ)
!	!LO:N:vis=16
.	(>16.ff#\LL
.	32ee\JJk)
=8	=8
2.ryy	8f#\L
.	32aa\LL
.	32bb\
.	32ccc#\
.	32ddd\JJJ
.	8aa\L
.	(>16fff#\L
.	16eee\JJ)
!	!LO:TX:a:t=P:problem=w źródle niejednoznaczny zapis łuku
.	(>16ddd\LL
.	16ccc#\
.	16bb\)
.	16aa\JJ
=9	=9
2.ryy	(>16.aa\LL
.	32gg\JJk)
.	(>16.aa\LL
.	32gg\JJk)
.	16.aa\LL
.	32aa\JJk
.	(>16.aa\LL
.	32gg\JJk)
.	(>16.aa\LL
.	32gg\JJk)
!	!LO:N:vis=16
.	16.aa\LL
.	32gg\JJk
!!LO:LB:g=original
=10	=10
2.ryy	8bb\L
.	8aa\
.	8bb\
.	8aa\J
.	8bb\L
.	(>16gg\L
.	16ff#\JJ)
=11	=11
2.ryy	(>16.ff#\LL
.	32ee\JJk)
.	16.ff#\LL
.	32ee\JJk
!	!LO:N:vis=16
.	(>16.ff#\LL
.	32ee\JJk)
.	16.ff#\LL
.	32ee\JJk
.	(>16ff#\LL
.	16ee\JJ)
.	(>16ff#\LL
.	16ee\JJ)
=12	=12
!	!LO:TX:a:t=P:problem=mixed beam
2.ryy	16d\LL
.	16dd\
.	16cc#\
.	16dd\JJ
.	16ee\LL
.	16ff#\
.	16gg\
.	16aa\JJ
.	16bb\LL
.	16ccc#\
.	16ddd\
.	16eee\JJ
=13	=13
2.ryy	16fff#\LL
.	16fff#\
.	16fff#\
.	16fff#\JJ
*	*tremolo
.	16fff#\LL
.	16fff#\
.	16fff#\
.	16fff#\JJ
*	*Xtremolo
.	16fff#\LL
.	16fff#\
.	16fff#\
.	16fff#\JJ
!!LO:LB:g=original
=14	=14
2.ryy	16ddd\LL
.	16ddd\
.	16ddd\
.	16ddd\JJ
.	16ccc#\LL
.	16ccc#\
.	16ccc#\
.	16ccc#\JJ
.	16cccn\LL
.	16ccc\
.	16ccc\
.	16ccc\JJ
=15	=15
2.ryy	8bb\L
.	8dd#X\J
.	8ee\L
.	(>16ccc#\L
.	16bb\JJ)
.	16aa\LL
.	16gg\
.	16ff#\
.	16ee\JJ
=16	=16
2.ryy	16bb\LL
.	16gg\
.	16ff#\
.	16ee\JJ
.	4ee\
.	4dd\
!!LO:PB:g=original
!LO:TX:a:t=P:problem=w źródle kreska podwójna wygląda jak końcowa	!LO:TX:a:t=P:problem=w źródle kreska podwójna wygląda jak końcowa
=17||	=17||
!	!LO:TX:a:t=P:problem=w źródle brak kropki przy 4.e
2.ryy	4.e 4.c#/
.	16a\LL
.	16cc#\JJ
.	16ee\LL
.	16ee\
.	16ee\
.	16ee\JJ
=18	=18
2.ryy	4.ff#\
.	16ee\LL
.	16gg\JJ
.	16eee\LL
.	16eee\
.	16eee\
.	16eee\JJ
=19	=19
2.ryy	4fff#\
.	8fff#\L
.	(>16fff#\L
.	16eee\JJ)
.	8ddd\L
.	(>16ddd\L
.	16ccc#\JJ)
=20	=20
2.ryy	8aa\L
.	(>16ccc#\L
.	16bb\JJ)
.	8aa\L
.	8gg#X\
.	8ff#\
.	8ee\J
=21	=21
2.ryy	4ee\
.	16dd\LL
.	16b\
.	16dd\
.	16ee\JJ
.	16ff#\LL
.	16ff#\
.	16ff#\
.	16ff#\JJ
!!LO:LB:g=original
=22	=22
2.ryy	8gg\L
.	16ee\L
.	16gg\JJ
.	16fff#\LL
.	16fff#\
.	16fff#\
.	16fff#\JJ
.	4ggg\
=23	=23
2.ryy	8ggg\L
.	16ggg\L
.	16fff#\JJ
.	8eee\L
.	(>16eee\L
.	16ddd\JJ)
.	8ccc#\L
.	(>16ccc#\L
.	16bb\JJ)
=24	=24
2.ryy	8bb\L
.	16ddd\L
.	16ccc#\JJ
.	16bb\LL
.	16aa\
.	16gg\
.	16ff#\JJ
.	16ee\LL
.	16dd\
.	16cc#\
.	16b\JJ
=25	=25
!	!LO:TX:a:t=P:problem=znak początku repetycji
2.ryy	8a\L
.	16aa\L
.	16aa\JJ
.	8aa\L
.	8aa\
.	8aa\
.	8aa\J
!!LO:LB:g=original
=26	=26
2.ryy	8aa\L
.	8qgg/
.	16ffn\L
.	16ee\JJ
.	4r
!	!LO:TX:a:t=P:problem=znak końca repetycji
.	4r
=27	=27
*	*rep
!	!LO:TX:a:t=P:problem=powtórzenie taktów oznaczone znakami repetycji
2.ryy	8a\L
.	16aa\L
.	16aa\JJ
.	8aa\L
.	8aa\
.	8aa\
.	8aa\J
=28	=28
2.ryy	8aa\L
.	8qgg/
.	16ffn\L
.	16ee\JJ
.	4r
.	4r
*	*Xrep
=29	=29
2.ryy	8ee\L
.	16aa\L
.	16aa\JJ
.	8aa\L
.	8ee\
.	8ff#\
.	8ff#\J
=30	=30
2.ryy	8ee\L
.	16aa\L
.	16aa\JJ
.	8aa\L
.	8ee\
.	8ff#\
.	8ff#\J
=31	=31
2.ryy	8ee\L
.	16aa\L
.	16gg#X\JJ
.	16aa\LL
.	16gg#\
.	16aa\
.	16gg#\JJ
.	16aa\LL
.	16gg#\
.	16aa\
!	!LO:TX:a:B:t=D&colon; Als
.	16gg#\JJ
!LO:TX:a:t=[segno]:problem:problem=znak segno na kresce taktowej	!LO:TX:a:t=[segno]:problem:problem=znak segno na kresce taktowej
!!LO:PB:g=original
=32||	=32||
*k[f#]	*k[f#]
*M3/4	*M3/4
!	!LO:TX:a:t=P:problem=W źródle przy kluczu błędnie [ee#]
!	!LO:TX:a:B:t=Trio
!	!LO:TX:a:t=P:problem=znak początku repetycji
2.ryy	8gg\L
.	16gg\L
.	16gg\JJ
.	8gg\L
.	8dd\
.	8gg\
.	8bb\J
!	!LO:TX:a:t=P:problem=znak końca repetycji
=33	=33
*	*rep
!	!LO:TX:a:t=P:problem=powtórzenie taktu oznaczone znakami repetycji
2.ryy	8gg\L
.	16gg\L
.	16gg\JJ
.	8gg\L
.	8dd\
.	8gg\
.	8bb\J
*	*Xrep
=34	=34
2.ryy	8ddd\L
.	16ddd\L
.	16ddd\JJ
.	8ddd\L
.	16ccc#X\L
.	16ccc#\JJ
.	8ccc#\L
.	16cccn\L
.	16ccc\JJ
=35	=35
2.ryy	8bb\L
.	(>16ccc\L
.	16bb\JJ)
.	16aa\LL
.	16gg\
.	16ff#\
.	16ee\JJ
.	4dd\
=36	=36
!	!LO:TX:a:t=P:problem=znak początku repetycji
4.ryy	8aa\L
.	16aa\L
.	16aa\JJ
.	8aa\L
4.ryy	8dd\
.	8aa\
.	8ccc\J
!	!LO:TX:a:t=P:problem=znak końca repetycji
!!LO:LB:g=original
=37	=37
*	*rep
!	!LO:TX:a:t=P:problem=powtórzenie taktu oznaczone znakami repetycji
2.ryy	8aa\L
.	16aa\L
.	16aa\JJ
.	8aa\L
.	8dd\
.	8aa\
.	8ccc\J
*	*Xrep
=38	=38
2.ryy	8eee\L
.	16eee-X\L
.	16eee-\JJ
.	8eee-\L
.	16ddd\L
.	16ddd\JJ
.	8ddd\L
.	16ccc\L
.	16ccc\JJ
=39	=39
!	!LO:TX:a:t=P:problem=znak początku repetycji
2.ryy	8g\
.	4b\
.	8cc\
.	8cc#X\L
.	8dd\J
=40	=40
2.ryy	(>8ee\L
.	8dd\)
.	(>8ee\
.	8dd\)
.	(>8ee\
.	8dd\J)
=41	=41
2.ryy	8ee-X\L
.	8dd\
.	8gg\
.	8ff#\
.	8bb\
.	8aa\J
=42	=42
2.ryy	8.ccc\L
.	16bb\Jk
.	16aa\LL
.	16gg\
.	16ff#\
.	16ee\JJ
.	16dd\LL
.	16cc\
.	16b\
.	16a\JJ
!	!LO:TX:a:t=P:problem=znak końca repetycji
!!LO:LB:g=original
=43	=43
*	*rep
!	!LO:TX:a:t=P:problem=powtórzenie taktó2 oznaczone znakami repetycji
2.ryy	8g\
.	4b\
.	8cc\
.	8cc#X\L
.	8dd\J
=44	=44
2.ryy	(>8ee\L
.	8dd\)
.	(>8ee\
.	8dd\)
.	(>8ee\
.	8dd\J)
=45	=45
2.ryy	8ee-X\L
.	8dd\
.	8gg\
.	8ff#\
.	8bb\
.	8aa\J
=46	=46
2.ryy	8.ccc\L
.	16bb\Jk
.	16aa\LL
.	16gg\
.	16ff#\
.	16ee\JJ
.	16dd\LL
.	16cc\
.	16b\
.	16a\JJ
*	*Xrep
=47	=47
2.ryy	8g\
.	4gg\
.	8dd\
.	8ee\L
.	8cc\J
=48	=48
2.ryy	(>8dd\L
.	8b\)
.	(>8cc\
.	8a\)
.	8b\
.	8g\J
=49	=49
2.ryy	(>16a\LL
.	16g#X\)
.	16a\
.	16b\JJ
.	(>16cc\LL
.	16b\)
.	16cc\
.	16dd\JJ
.	16dd#X\LL
.	16ee\
.	16cc\
.	16a\JJ
=50	=50
2.ryy	16dd\LL
.	16cc\
.	16b\
.	16a\JJ
.	4a/
.	4g/
!LO:TX:a:t=P:problem=w źródle kreska podwójna wygląda jak końcowa	!LO:TX:a:t=P:problem=w źródle kreska podwójna wygląda jak końcowa
=51||	=51||
!	!LO:TX:a:t=P:problem=znak początku repetycji
2.ryy	16g/LL
.	16g/
.	16d/
.	16d/JJ
.	16B/LL
.	16B/
.	16d/
.	16d/JJ
.	16b\LL
.	16b\
.	16a\
.	16a\JJ
!	!LO:TX:a:t=P:problem=znak końca repetycji
!!LO:LB:g=original
=52	=52
*	*rep
!	!LO:TX:a:t=P:problem=powtórzenie taktu oznaczone znakami repetycji
2.ryy	16g/LL
.	16g/
.	16d/
.	16d/JJ
.	16B/LL
.	16B/
.	16d/
.	16d/JJ
.	16b\LL
.	16b\
.	16a\
.	16a\JJ
*	*Xrep
=53	=53
!	!LO:TX:a:t=P:problem=znak początku repetycji
2.ryy	16a/LL
.	16a/
.	16d/
.	16d/JJ
.	16f#/LL
.	16f#/
.	16a/
.	16a/JJ
.	16cc\LL
.	16cc\
.	16b\
.	16b\JJ
!	!LO:TX:a:t=P:problem=znak końca repetycji
=54	=54
*	*rep
!	!LO:TX:a:t=P:problem=powtórzenie taktu oznaczone znakami repetycji
2.ryy	16a/LL
.	16a/
.	16d/
.	16d/JJ
.	16f#/LL
.	16f#/
.	16a/
.	16a/JJ
.	16cc\LL
.	16cc\
.	16b\
.	16b\JJ
*	*Xrep
=55	=55
!	!LO:TX:a:t=P:problem=znak początku repetycji
2.ryy	16g/LL
.	16g/
.	16d/
.	16d/JJ
.	16B/LL
.	16B/
.	16d/
.	16d/JJ
.	16b\LL
.	16b\
.	16a\
.	16a\JJ
!	!LO:TX:a:t=P:problem=znak końca repetycji
=56	=56
*	*rep
!	!LO:TX:a:t=P:problem=powtórzenie taktu oznaczone znakami repetycji
2.ryy	16g/LL
.	16g/
.	16d/
.	16d/JJ
.	16B/LL
.	16B/
.	16d/
.	16d/JJ
.	16b\LL
.	16b\
.	16a\
.	16a\JJ
*	*Xrep
=57	=57
2.ryy	16a/LL
.	16a/
.	16d/
.	16d/JJ
.	16f#/LL
.	16f#/
.	16a/
.	16a/JJ
.	16cc\LL
.	16cc\
.	16b\
.	16b\JJ
=58	=58
*	*tremolo
2.ryy	16bbLL 16dd\
.	16bb 16dd\
.	16bb 16dd\
.	16bb 16dd\
.	16bb 16dd\
.	16bb 16dd\
.	16bb 16dd\
.	16bb 16dd\
.	16bb 16dd\
.	16bb 16dd\
.	16bb 16dd\
.	16bbJJ 16dd\
*	*Xtremolo
=59	=59
*	*tremolo
2.ryy	16ccc#XLL 16ee\
.	16ccc# 16ee\
.	16ccc# 16ee\
.	16ccc# 16ee\
.	16ccc# 16ee\
.	16ccc# 16ee\
.	16ccc# 16ee\
.	16ccc# 16ee\
.	16ccc# 16ee\
.	16ccc# 16ee\
.	16ccc# 16ee\
.	16ccc#JJ 16ee\
!	!LO:TX:a:t=P:problem=w źródle partia urywa się w takcie 59
*	*Xtremolo
==	==
*-	*-
!!title: @{OTL};
!!!RDF**kern: > = above
!!!RDF**kern: < = below
!!!EED: Wojciech Jakubiak-Danek
!!!EST: 2020-12-10
!!!URL-scan: http://bc.bdsandomierz.pl/dlibra/publication/1384/edition/1352/content
!!!ONB-nifc: Str. 4-6
!!!ENC: Andrzej Kubiczek
!!!END: 2020-06-19
